Speka/assets/images/instagram.svg

<svg width="25" height="25" viewBox="0 0 25 25" fill="none" xmlns="http://www.w3.org/2000/svg">
<path d="M25 12.5C25 5.59644 19.4036 0 12.5 0C5.59644 0 0 5.59644 0 12.5C0 19.4036 5.59644 25 12.5 25C19.4036 25 25 19.4036 25 12.5Z" fill="#F58220"/>
<path d="M12.5045 14.3359C13.6835 14.3359 14.6393 13.3999 14.6393 12.2453C14.6393 11.0908 13.6835 10.1548 12.5045 10.1548C11.3254 10.1548 10.3696 11.0908 10.3696 12.2453C10.3696 13.3999 11.3254 14.3359 12.5045 14.3359Z" fill="white"/>
<path d="M15.5907 5.37744H9.41788C8.37643 5.3786 7.37798 5.78423 6.64157 6.50536C5.90516 7.22648 5.49093 8.20421 5.48975 9.22403V15.2687C5.49093 16.2885 5.90516 17.2662 6.64157 17.9873C7.37798 18.7085 8.37643 19.1141 9.41788 19.1153H15.5907C16.6321 19.1141 17.6305 18.7085 18.367 17.9873C19.1034 17.2662 19.5176 16.2885 19.5188 15.2687V9.22403C19.5176 8.20421 19.1034 7.22648 18.367 6.50536C17.6305 5.78423 16.6321 5.3786 15.5907 5.37744ZM12.5043 15.5434C11.8383 15.5434 11.1874 15.3501 10.6337 14.9878C10.08 14.6255 9.64843 14.1105 9.39359 13.5081C9.13875 12.9056 9.07208 12.2427 9.20199 11.6031C9.33191 10.9636 9.65258 10.3761 10.1235 9.91496C10.5943 9.45386 11.1943 9.13984 11.8474 9.01263C12.5005 8.88541 13.1775 8.9507 13.7928 9.20025C14.408 9.4498 14.9338 9.87239 15.3038 10.4146C15.6738 10.9568 15.8712 11.5942 15.8712 12.2463C15.8702 13.1205 15.5152 13.9585 14.884 14.5766C14.2527 15.1947 13.3969 15.5424 12.5043 15.5434ZM16.1518 9.49879C15.9853 9.49879 15.8226 9.45044 15.6842 9.35987C15.5457 9.2693 15.4379 9.14057 15.3741 8.98995C15.3104 8.83934 15.2938 8.6736 15.3262 8.51371C15.3587 8.35382 15.4389 8.20695 15.5566 8.09167C15.6743 7.97639 15.8243 7.89789 15.9876 7.86609C16.1509 7.83428 16.3201 7.8506 16.4739 7.91299C16.6277 7.97538 16.7592 8.08103 16.8517 8.21658C16.9442 8.35213 16.9936 8.51149 16.9936 8.67452C16.9936 8.89313 16.9049 9.10278 16.747 9.25736C16.5892 9.41194 16.3751 9.49879 16.1518 9.49879Z" fill="white"/>
</svg>

<svg width="25" height="25" fill="none" xmlns="http://www.w3.org/2000/svg"><path d="M25 12.5C25 5.596 19.404 0 12.5 0S0 5.596 0 12.5 5.596 25 12.5 25 25 19.404 25 12.5z" fill="#F58220"/><path d="M12.505 14.336c1.178 0 2.134-.936 2.134-2.09 0-1.155-.955-2.091-2.134-2.091-1.18 0-2.135.936-2.135 2.09 0 1.155.955 2.09 2.135 2.09z" fill="#fff"/><path d="M15.59 5.377H9.419a3.975 3.975 0 00-2.776 1.128A3.81 3.81 0 005.49 9.224v6.045a3.81 3.81 0 001.152 2.718 3.975 3.975 0 002.776 1.128h6.173a3.975 3.975 0 002.776-1.128 3.81 3.81 0 001.152-2.718V9.224a3.811 3.811 0 00-1.152-2.719 3.975 3.975 0 00-2.776-1.128zm-3.086 10.166a3.418 3.418 0 01-1.87-.555 3.314 3.314 0 01-1.24-1.48 3.234 3.234 0 01-.192-1.905c.13-.64.45-1.227.921-1.688a3.39 3.39 0 011.724-.902 3.434 3.434 0 011.946.187 3.35 3.35 0 011.51 1.215c.37.542.568 1.18.568 1.831a3.266 3.266 0 01-.987 2.33 3.408 3.408 0 01-2.38.967zM16.152 9.5a.854.854 0 01-.468-.14.828.828 0 01-.31-.369.81.81 0 01.183-.898.847.847 0 01.917-.179.838.838 0 01.378.304.812.812 0 01-.105 1.04.85.85 0 01-.595.242z" fill="#fff"/></svg>
